packages/swarm-icons/src/icons/large/Message Alt Selected.svg

<svg xmlns="http://www.w3.org/2000/svg" width="28" height="28" viewBox="0 0 28 28">
  <path fill="#212121" d="M7.91851498,25.320733 C6.50581727,25.9628683 4.93177507,24.8214359 5.10314162,23.2791369 L5.44050713,20.2428474 C3.57240471,18.3199836 2.5,15.8113344 2.5,13.1363636 C2.5,7.21728171 7.68900988,2.5 14,2.5 C20.3109901,2.5 25.5,7.21728171 25.5,13.1363636 C25.5,19.0554456 20.3109901,23.7727273 14,23.7727273 C13.2439558,23.7727273 12.4965661,23.7050989 11.7656963,23.5720142 L7.91851498,25.320733 Z M11,16.5 L17,16.5 C17.5522847,16.5 18,16.0522847 18,15.5 C18,14.9477153 17.5522847,14.5 17,14.5 L11,14.5 C10.4477153,14.5 10,14.9477153 10,15.5 C10,16.0522847 10.4477153,16.5 11,16.5 Z M9,12 L19,12 C19.5522847,12 20,11.5522847 20,11 C20,10.4477153 19.5522847,10 19,10 L9,10 C8.44771525,10 8,10.4477153 8,11 C8,11.5522847 8.44771525,12 9,12 Z"/>
</svg>

<svg xmlns="http://www.w3.org/2000/svg" width="28" height="28"><path fill="#212121" d="M7.919 25.32c-1.413.643-2.987-.499-2.816-2.04l.338-3.037C3.572 18.32 2.5 15.81 2.5 13.136 2.5 7.217 7.689 2.5 14 2.5s11.5 4.717 11.5 10.636c0 5.92-5.189 10.637-11.5 10.637-.756 0-1.503-.068-2.234-.201l-3.847 1.749zM11 16.5h6a1 1 0 000-2h-6a1 1 0 000 2zM9 12h10a1 1 0 000-2H9a1 1 0 000 2z"/></svg>
